files/resources/svgs/general/s-check-badge.svg

<svg width="24" height="24" viewBox="0 0 24 24" fill="none" xmlns="http://www.w3.org/2000/svg">
<path fill-rule="evenodd" clip-rule="evenodd" d="M8.60288 3.79876C9.42705 2.85093 10.6433 2.25 12 2.25C13.3566 2.25 14.5728 2.85087 15.397 3.79861C16.6501 3.71106 17.9352 4.14616 18.8946 5.10557C19.854 6.06498 20.2891 7.35009 20.2016 8.60319C21.1492 9.42735 21.75 10.6435 21.75 12C21.75 13.3568 21.149 14.5731 20.2011 15.3973C20.2884 16.6502 19.8533 17.935 18.8941 18.8943C17.9348 19.8535 16.65 20.2886 15.3971 20.2013C14.5729 21.1491 13.3567 21.75 12 21.75C10.6434 21.75 9.4272 21.1491 8.60304 20.2014C7.34992 20.289 6.0648 19.8539 5.10537 18.8945C4.14596 17.935 3.71086 16.6499 3.79841 15.3968C2.85079 14.5726 2.25 13.3565 2.25 12C2.25 10.6434 2.85085 9.42723 3.79855 8.60306C3.7111 7.35005 4.14621 6.06507 5.10554 5.10574C6.06488 4.1464 7.34987 3.71129 8.60288 3.79876ZM15.6103 10.1859C15.8511 9.84887 15.773 9.38046 15.4359 9.1397C15.0989 8.89894 14.6305 8.97701 14.3897 9.31407L11.1543 13.8436L9.53033 12.2197C9.23744 11.9268 8.76256 11.9268 8.46967 12.2197C8.17678 12.5126 8.17678 12.9874 8.46967 13.2803L10.7197 15.5303C10.8756 15.6862 11.0921 15.7656 11.3119 15.7474C11.5316 15.7293 11.7322 15.6153 11.8603 15.4359L15.6103 10.1859Z" fill="#0F172A"/>
</svg>

<svg xmlns="http://www.w3.org/2000/svg" viewBox="0 0 24 24" fill="currentColor" aria-hidden="true">
  <path fill-rule="evenodd" d="M8.603 3.799A4.49 4.49 0 0112 2.25c1.357 0 2.573.6 3.397 1.549a4.49 4.49 0 013.498 1.307 4.491 4.491 0 011.307 3.497A4.49 4.49 0 0121.75 12a4.49 4.49 0 01-1.549 3.397 4.491 4.491 0 01-1.307 3.497 4.491 4.491 0 01-3.497 1.307A4.49 4.49 0 0112 21.75a4.49 4.49 0 01-3.397-1.549 4.49 4.49 0 01-3.498-1.306 4.491 4.491 0 01-1.307-3.498A4.49 4.49 0 012.25 12c0-1.357.6-2.573 1.549-3.397a4.49 4.49 0 011.307-3.497 4.49 4.49 0 013.497-1.307zm7.007 6.387a.75.75 0 10-1.22-.872l-3.236 4.53L9.53 12.22a.75.75 0 00-1.06 1.06l2.25 2.25a.75.75 0 001.14-.094l3.75-5.25z" clip-rule="evenodd"/>
</svg>
